X: 2
T: Gabhaidh Sinn an Rathad Mor
T: The Stewarts March
B: &quot;The Athole Collection&quot;, James Stewart Robertson, 1884, page 153
M: 4/4
L: 1/8
R: country dance
K: A Major
|: e>fe>d c>d e2 | B>cd>c B>c d2 | e>fe>d c>de>a |[1 A>Ac>A B2 A2 :|[2  A>Ac>A B2 A>B ||
c>BA>B c>A c2 | d>cB>c d>B d2 | c>BA>B c>Ac>e | A>Ac>A B2 A>B |
c>A (3ABA c>A c2 | d>B (3BcB d>B d2 | c>A (3ABA c>Ac>a | A>Bc>A B2 A2 |]
